64x64/apps/Joplin.svg

<svg height="64" width="64" xmlns="http://www.w3.org/2000/svg"><rect height="56" opacity=".2" rx="16.8" width="56" x="4" y="5"/><rect fill="#176fd0" height="56" rx="16.8" width="56" x="4" y="4"/><path d="m32 17v-5h15v5h-3s-.9 0-.9 1.1v26.1c0 2.8-1.3 9.8-12.5 9.8-9.8 0-13.6-7.763-13.6-14.7 0-14 15-9.7 15-9.7v7.4s-1.4-1-4.2-1c-1.683 0-3.8 1.2-3.8 4 0 3.645 3.8 6 6.6 6 4.2 0 5.4-3.2 5.4-4.6v-23.3c0-1.1-1-1.1-1-1.1z" opacity=".2"/><g fill="#f4f4f7"><path d="m32 16v-5h15v5h-3s-.9 0-.9 1.1v26.1c0 2.8-1.3 9.8-12.5 9.8-9.8 0-13.6-7.763-13.6-14.7 0-14 15-9.7 15-9.7v7.4s-1.4-1-4.2-1c-1.683 0-3.8 1.2-3.8 4 0 3.645 3.8 6 6.6 6 4.2 0 5.4-3.2 5.4-4.6v-23.3c0-1.1-1-1.1-1-1.1z"/><path d="m20.801 4a16.765 16.765 0 0 0 -16.801 16.801v1a16.765 16.765 0 0 1 16.801-16.801h22.398a16.765 16.765 0 0 1 16.801 16.801v-1a16.765 16.765 0 0 0 -16.801-16.801z" opacity=".1"/></g></svg>

<svg height="64" width="64" xmlns="http://www.w3.org/2000/svg">
    <rect height="56" opacity=".2" rx="16.8" width="56" x="4" y="5"/>
    <rect fill="#176fd0" height="56" rx="16.8" width="56" x="4" y="4"/>
    <path d="M32 17v-5h15v5h-3s-.9 0-.9 1.1v26.1c0 2.8-1.3 9.8-12.5 9.8C20.8 54 17 46.237 17 39.3c0-14 15-9.7 15-9.7V37s-1.4-1-4.2-1c-1.683 0-3.8 1.2-3.8 4 0 3.645 3.8 6 6.6 6 4.2 0 5.4-3.2 5.4-4.6V18.1c0-1.1-1-1.1-1-1.1z" opacity=".2"/>
    <g fill="#f4f4f7">
        <path d="M32 16v-5h15v5h-3s-.9 0-.9 1.1v26.1c0 2.8-1.3 9.8-12.5 9.8C20.8 53 17 45.237 17 38.3c0-14 15-9.7 15-9.7V36s-1.4-1-4.2-1c-1.683 0-3.8 1.2-3.8 4 0 3.645 3.8 6 6.6 6 4.2 0 5.4-3.2 5.4-4.6V17.1c0-1.1-1-1.1-1-1.1z"/>
        <path d="M20.801 4A16.765 16.765 0 0 0 4 20.801v1A16.765 16.765 0 0 1 20.801 5h22.398A16.765 16.765 0 0 1 60 21.801v-1A16.765 16.765 0 0 0 43.199 4z" opacity=".1"/>
    </g>
</svg>
